Papirus/32x32/apps/qprompt.svg

<svg width="32" height="32" version="1.1" xmlns="http://www.w3.org/2000/svg">
 <path d="m19.829739 30h-7.659477a4.9497227 4.9497227 0 0 1-3.3772881-1.331202l-4.3733445-4.081788a4.489675 4.489675 0 0 1-1.4262879-3.282202l1.3e-6 -8.141204a4.7101291 4.7101291 0 0 1 1.3795641-3.330563l4.4667909-4.4667916a4.7101258 4.7101258 0 0 1 3.3305642-1.3795644l7.659477 6e-7a4.7101284 4.7101284 0 0 1 3.330562 1.3795646l4.466792 4.4667908a4.7101271 4.7101271 0 0 1 1.379565 3.330563v8.141204a4.4896754 4.4896754 0 0 1-1.426288 3.282202l-4.373346 4.081788a4.949723 4.949723 0 0 1-3.377285 1.331202z" style="opacity:.2"/>
 <path d="m19.836397 29.013315h-7.659477a4.9497227 4.9497227 0 0 1-3.3772876-1.331202l-4.3733445-4.081788a4.489675 4.489675 0 0 1-1.4262879-3.282202l1.3e-6 -8.141204a4.7101291 4.7101291 0 0 1 1.3795641-3.3305631l4.4667909-4.4667915a4.7101258 4.7101258 0 0 1 3.3305637-1.3795644l7.659477 6e-7a4.7101284 4.7101284 0 0 1 3.330562 1.3795646l4.466792 4.4667907a4.7101271 4.7101271 0 0 1 1.379565 3.3305631v8.141204a4.4896754 4.4896754 0 0 1-1.426288 3.282202l-4.373345 4.081788a4.949723 4.949723 0 0 1-3.377286 1.331202z" style="fill:#4f4f4f"/>
 <path d="m3.0175781 12a4.7101291 4.7101291 0 0 0-0.0175781 0.177734v1.335938l17.392578 11.486328c0.311214 0.221612 0.714536-0.102035 0.580078-0.464844l-4.753906-11.429687c-0.274257-0.659334-0.877937-1.105469-1.578125-1.105469h-11.623047zm17.75586 3c-1.152692 0-1.740624 0.940559-1.31836 2.109375l0.644531 1.78125c0.422268 1.168815 1.689106 2.109375 2.841797 2.109375h5.603516c0.151155 0 0.291147-0.018087 0.421875-0.048828a4.4896754 4.4896754 0 0 0 0.046875-0.632813v-3.654297c-0.545309-0.953161-1.634996-1.664062-2.636719-1.664062h-5.603515z" style="opacity:.1"/>
 <path d="m12.177734 3a4.7101258 4.7101258 0 0 0-3.3320309 1.3789062l-4.4667969 4.4667969a4.7101291 4.7101291 0 0 0-1.3789062 3.3320309v1a4.7101291 4.7101291 0 0 1 1.3789062-3.3320309l4.4667969-4.4667969a4.7101258 4.7101258 0 0 1 3.3320309-1.3789062h7.658204a4.7101284 4.7101284 0 0 1 3.330078 1.3789062l4.466796 4.4667969a4.7101271 4.7101271 0 0 1 1.38086 3.3320309v-1a4.7101271 4.7101271 0 0 0-1.38086-3.3320309l-4.466796-4.4667969a4.7101284 4.7101284 0 0 0-3.330078-1.3789062h-7.658204z" style="fill:#ffffff;opacity:.1"/>
 <path d="m20.973437 23.535985-4.754684-11.430644c-0.274257-0.659334-0.87793-1.105341-1.57812-1.105341h-12.103822c-0.5266648 0.0044-0.7365132 0.69873-0.30418 1.006596l18.159932 11.993404c0.311214 0.221612 0.715332-0.101206 0.580874-0.464015z" style="fill:#17c7e1"/>
 <path d="m20.774086 14h5.603046c1.152691 0 2.420622 0.940961 2.842888 2.109779l0.643232 1.780441c0.422271 1.168817-0.165767 2.10978-1.318458 2.10978h-5.603047c-1.152693 0-2.420623-0.940963-2.842891-2.10978l-0.643231-1.780441c-0.422266-1.168818 0.165767-2.109779 1.318461-2.109779z" style="fill:#2ec27e;stop-color:#000000"/>
 <path d="m2.5371094 11c-0.5266638 0.0044-0.7370199 0.697995-0.3046875 1.005859l0.078125 0.050782c0.0675716-0.032618 0.1408113-0.055925 0.2265625-0.056641h12.103516c0.700188 0 1.303868 0.446135 1.578125 1.105469l4.546875 10.93164c0.172256-0.079115 0.28821-0.282906 0.207031-0.501953l-4.753906-11.429687c-0.274257-0.659334-0.877937-1.105469-1.578125-1.105469h-12.103516zm18.236329 3c-1.085154 0-1.670333 0.833401-1.382813 1.90625 0.176781-0.548425 0.671897-0.90625 1.382813-0.90625h5.603515c1.152689 0 2.421486 0.940559 2.84375 2.109375l0.642578 1.78125c0.024742 0.068483 0.046558 0.136352 0.064453 0.203125 0.109856-0.340802 0.097385-0.755169-0.064453-1.203125l-0.642578-1.78125c-0.422264-1.168816-1.691061-2.109375-2.84375-2.109375h-5.603515z" style="fill:#ffffff;opacity:.2"/>
</svg>

<svg xmlns="http://www.w3.org/2000/svg" width="32" height="32" version="1.1">
 <path style="opacity:0.2" d="M 19.83,30 H 12.17 A 4.9497,4.9497 0 0 1 8.7931,28.669 L 4.4197,24.587 A 4.4897,4.4897 0 0 1 2.9934,21.305 V 13.164 A 4.7101,4.7101 0 0 1 4.373,9.833 L 8.8398,5.3662 A 4.7101,4.7101 0 0 1 12.17,3.9867 H 19.83 A 4.7101,4.7101 0 0 1 23.16,5.3663 L 27.627,9.833 A 4.7101,4.7101 0 0 1 29.007,13.164 V 21.305 A 4.4897,4.4897 0 0 1 27.58,24.587 L 23.207,28.669 A 4.9497,4.9497 0 0 1 19.83,30 Z"/>
 <path style="fill:#4f4f4f" d="M 19.836,29.013 H 12.177 A 4.9497,4.9497 0 0 1 8.7997,27.682 L 4.4264,23.6 A 4.4897,4.4897 0 0 1 3.0001,20.318 V 12.177 A 4.7101,4.7101 0 0 1 4.3797,8.8464 L 8.8465,4.3796 A 4.7101,4.7101 0 0 1 12.177,3 H 19.836 A 4.7101,4.7101 0 0 1 23.167,4.3796 L 27.634,8.8464 A 4.7101,4.7101 0 0 1 29.013,12.177 V 20.318 A 4.4897,4.4897 0 0 1 27.587,23.6 L 23.214,27.682 A 4.9497,4.9497 0 0 1 19.836,29.013 Z"/>
 <path style="opacity:0.1" d="M 3.0177,12 A 4.7101,4.7101 0 0 0 3.0001,12.178 V 13.514 L 20.393,25 C 20.704,25.222 21.107,24.898 20.973,24.535 L 16.219,13.105 C 15.944,12.446 15.341,12 14.641,12 Z M 20.773,15 C 19.621,15 19.033,15.941 19.455,17.109 L 20.1,18.891 C 20.522,20.059 21.789,21 22.941,21 H 28.545 C 28.696,21 28.836,20.982 28.967,20.951 A 4.4897,4.4897 0 0 0 29.014,20.318 V 16.664 C 28.468,15.711 27.379,15 26.377,15 Z"/>
 <path style="opacity:0.1;fill:#ffffff" d="M 12.178,3 A 4.7101,4.7101 0 0 0 8.8458,4.3789 L 4.379,8.8457 A 4.7101,4.7101 0 0 0 3.0001,12.178 V 13.178 A 4.7101,4.7101 0 0 1 4.379,9.8457 L 8.8458,5.3789 A 4.7101,4.7101 0 0 1 12.178,4 H 19.836 A 4.7101,4.7101 0 0 1 23.166,5.3789 L 27.633,9.8457 A 4.7101,4.7101 0 0 1 29.014,13.178 V 12.178 A 4.7101,4.7101 0 0 0 27.633,8.8457 L 23.166,4.3789 A 4.7101,4.7101 0 0 0 19.836,3 Z"/>
 <path style="fill:#17c7e1" d="M 20.973,23.536 16.219,12.105 C 15.944,11.446 15.341,11 14.641,11 H 2.5369 C 2.0102,11.004 1.8004,11.699 2.2327,12.007 L 20.393,24 C 20.704,24.222 21.108,23.899 20.973,23.536 Z"/>
 <path style="fill:#2ec27e" d="M 20.774,14 H 26.377 C 27.53,14 28.798,14.941 29.22,16.11 L 29.863,17.89 C 30.286,19.059 29.697,20 28.545,20 H 22.942 C 21.789,20 20.521,19.059 20.099,17.89 L 19.456,16.11 C 19.033,14.941 19.621,14 20.774,14 Z"/>
 <path style="opacity:0.2;fill:#ffffff" d="M 2.5372,11 C 2.0105,11.004 1.8002,11.698 2.2325,12.006 L 2.3106,12.057 C 2.3782,12.024 2.4515,12.001 2.5372,12 H 14.641 C 15.341,12 15.944,12.446 16.219,13.105 L 20.766,24.037 C 20.938,23.958 21.054,23.754 20.973,23.535 L 16.219,12.105 C 15.944,11.446 15.341,11 14.641,11 Z M 20.773,14 C 19.688,14 19.103,14.833 19.391,15.906 19.567,15.358 20.063,15 20.773,15 H 26.377 C 27.53,15 28.798,15.941 29.221,17.109 L 29.863,18.891 C 29.888,18.959 29.91,19.027 29.928,19.094 30.038,18.753 30.025,18.339 29.863,17.891 L 29.221,16.109 C 28.798,14.941 27.53,14 26.377,14 Z"/>
</svg>
